packages/core/src/svgs/tokens/mono/BGB.svg

<svg width="24" height="24" viewBox="0 0 24 24" fill="none" xmlns="http://www.w3.org/2000/svg">
<path d="M2.36364 8.18783C1.87879 8.69087 1.87879 9.48482 2.36364 9.98783L7.85456 15.6363H11.4607L6.16364 10.1818H12.3031L9.87882 7.75754H6.39395L11.6909 2.30298H8.08485L2.36364 8.18783ZM17.9212 15.6363L12.3031 21.6969H15.9152L21.6364 15.5273C22.1212 15 22.1212 14.1636 21.6364 13.6424L16.1818 7.75754H12.5696L17.6303 13.2121H11.697L14.1212 15.6363H17.9212Z" fill="white"/>
</svg>

<svg xmlns="http://www.w3.org/2000/svg" width="24" height="24" fill="none" viewBox="0 0 24 24">
    <path fill="#fff" d="M2.364 8.188a1.296 1.296 0 0 0 0 1.8l5.49 5.648h3.607l-5.297-5.454h6.14L9.878 7.758H6.394l5.297-5.455H8.085zm15.557 7.448-5.618 6.06h3.612l5.721-6.169a1.403 1.403 0 0 0 0-1.885l-5.454-5.884H12.57l5.06 5.454h-5.933l2.424 2.424z"/>
</svg>
